www/images/share 2.svg

<svg fill="none" height="75" viewBox="0 0 75 75" width="75" xmlns="http://www.w3.org/2000/svg"><path d="m20.3115 22.6552c-8.1885 0-14.84476 6.6563-14.84476 14.8448s6.65626 14.8447 14.84476 14.8447c4.626 0 8.751-2.124 11.4697-5.4375l14.9385 8.7188c-.4072 1.1865-.624 2.4375-.624 3.75 0 6.4687 5.25 11.7187 11.7188 11.7187 6.4687 0 11.7187-5.25 11.7187-11.7187 0-6.4688-5.25-11.7188-11.7187-11.7188-3.4688 0-6.5772 1.5147-8.7188 3.9229l-14.9535-8.7187c.6416-1.6553 1.0166-3.4688 1.0166-5.3584s-.375-3.6885-1.0166-5.3584l14.9535-8.7187c2.1416 2.4052 5.25 3.9228 8.7188 3.9228 6.4687 0 11.7187-5.25 11.7187-11.7187-.0029-6.47461-5.2529-11.72476-11.7217-11.72476-6.4689 0-11.7188 5.25-11.7188 11.71876 0 1.3125.2344 2.5781.624 3.75l-14.9385 8.7187c-2.7158-3.3105-6.8408-5.4375-11.4667-5.4375zm0 25.002c-5.5928 0-10.1573-4.5615-10.1573-10.1572 0-5.5928 4.5615-10.1573 10.1573-10.1573 5.5927 0 10.1572 4.5615 10.1572 10.1573 0 5.5927-4.5615 10.1572-10.1572 10.1572zm37.5 4.6875c3.876 0 7.0312 3.1553 7.0312 7.0313s-3.1552 7.0312-7.0312 7.0312-7.0313-3.1552-7.0313-7.0312 3.1582-7.0313 7.0313-7.0313zm0-43.75196c3.876 0 7.0312 3.15526 7.0312 7.03126s-3.1552 7.0312-7.0312 7.0312-7.0313-3.1552-7.0313-7.0312c0-3.8731 3.1582-7.03126 7.0313-7.03126z" fill="#fff"/></svg>

<svg width="75" height="75" viewBox="0 0 75 75" fill="none" xmlns="http://www.w3.org/2000/svg">
<path d="M20.3115 22.6552C12.123 22.6552 5.46674 29.3115 5.46674 37.5C5.46674 45.6885 12.123 52.3447 20.3115 52.3447C24.9375 52.3447 29.0625 50.2207 31.7812 46.9072L46.7197 55.626C46.3125 56.8125 46.0957 58.0635 46.0957 59.376C46.0957 65.8447 51.3457 71.0947 57.8145 71.0947C64.2832 71.0947 69.5332 65.8447 69.5332 59.376C69.5332 52.9072 64.2832 47.6572 57.8145 47.6572C54.3457 47.6572 51.2373 49.1719 49.0957 51.5801L34.1422 42.8614C34.7838 41.2061 35.1588 39.3926 35.1588 37.503C35.1588 35.6134 34.7838 33.8145 34.1422 32.1446L49.0957 23.4259C51.2373 25.8311 54.3457 27.3487 57.8145 27.3487C64.2832 27.3487 69.5332 22.0987 69.5332 15.63C69.5303 9.15539 64.2803 3.90524 57.8115 3.90524C51.3426 3.90524 46.0927 9.15524 46.0927 15.624C46.0927 16.9365 46.3271 18.2021 46.7167 19.374L31.7782 28.0927C29.0624 24.7822 24.9374 22.6552 20.3115 22.6552ZM20.3115 47.6572C14.7187 47.6572 10.1542 43.0957 10.1542 37.5C10.1542 31.9072 14.7157 27.3427 20.3115 27.3427C25.9042 27.3427 30.4687 31.9042 30.4687 37.5C30.4687 43.0927 25.9072 47.6572 20.3115 47.6572ZM57.8115 52.3447C61.6875 52.3447 64.8427 55.5 64.8427 59.376C64.8427 63.252 61.6875 66.4072 57.8115 66.4072C53.9355 66.4072 50.7802 63.252 50.7802 59.376C50.7802 55.5 53.9384 52.3447 57.8115 52.3447ZM57.8115 8.59274C61.6875 8.59274 64.8427 11.748 64.8427 15.624C64.8427 19.5 61.6875 22.6552 57.8115 22.6552C53.9355 22.6552 50.7802 19.5 50.7802 15.624C50.7802 11.7509 53.9384 8.59274 57.8115 8.59274Z" fill="white"/>
</svg>
